X: 607
T: Goodbye Liza Jane
B: jims roots
M:4/4
L:1/8
Q: 1/4=100
K:A
V:1 
%Z:Jim Kendrick
|: EE F2 G2 | "A"{G}[A2A2]AA "E"B2 BB | "A"cABc "D"d2[df][df] |"A"{c}A2 A2 AAAA |
"E"{=G}^G2 [E2B2] F2 G2 | "A"{G}[A2A2]AA "E"B2 BB | "A"cABc d2 "D"[df][df] | "A"efed "E"cABc | "A"A2 :|
|: "A"{G}[AA]A AAAA | [A2e2] [Ae][Ae] "D"[A2f2][A2e2] | {=c}"A"^c2e2 [ec]eee | [A2e2] [Ae][Ae] "D"B2 =c2 |
"A"[e2c2][ec][ec] [ec][ec][ec][ec] | [A2e2][Ae][Ae]"D"[A2f2][A2e2] | "A"{=c}^c2 e2 eeAB | cBAc "E"BAGB |  "A"A2 :|
% abcbook-tune_id 6298c25daf584d7ab0c5efff


% abcbook-boost 0
% abcbook-tablature 
% abcbook-transpose 
% abcbook-lastupdated 1654178398318
% abcbook-soundfonts 
% abcbook-repeats 1


